symbols/web/star_half/materialsymbolsrounded/star_half_wght300gradN25_48px.svg

<svg xmlns="http://www.w3.org/2000/svg" height="48" width="48"><path d="m30.3 35.15-2.5-7.95 5.8-3.85h-7.05L24 15.4v14.95ZM17.15 38.5q-.85.65-1.675.05-.825-.6-.525-1.55l2.6-8.6-6.6-4.85q-.85-.55-.55-1.5.3-.95 1.3-.95H20l2.65-8.9q.1-.5.525-.75.425-.25.825-.25.4 0 .825.25.425.25.525.75L28 21.1h8.3q1 0 1.3.95.3.95-.5 1.5l-6.65 4.85L33.1 37q.25.95-.575 1.55-.825.6-1.625-.05L24 33.25Z"/></svg>

<svg xmlns="http://www.w3.org/2000/svg" height="48" width="48"><path d="M30.3 35.15 27.8 27.2 33.6 23.35H26.55L24 15.4V30.35ZM17.15 38.5Q16.3 39.15 15.475 38.55Q14.65 37.95 14.95 37L17.55 28.4L10.95 23.55Q10.1 23 10.4 22.05Q10.7 21.1 11.7 21.1H20L22.65 12.2Q22.75 11.7 23.175 11.45Q23.6 11.2 24 11.2Q24.4 11.2 24.825 11.45Q25.25 11.7 25.35 12.2L28 21.1H36.3Q37.3 21.1 37.6 22.05Q37.9 23 37.1 23.55L30.45 28.4L33.1 37Q33.35 37.95 32.525 38.55Q31.7 39.15 30.9 38.5L24 33.25Z"/></svg>
